!!!!SEGMENT: pl-sa--l-1643--066_anonim--o-viri-galilei-o-amici-dei.krn
!!!cenid: 16xx:1424
!!!COM: Anonim
!!!COM-rismid: pe30004985
!!!CDT:
!!!CNT:
!!!OTL: O viri galilei o amici dei
!!!PDT:
!!!AGN: Sacred
!!!SMS-siglum: PL-SA
!!!SMS-shelfmark: L 1643
!!!SMS-shelfwork: 066 W
!!!SMS-variant:
!!!SMS-altvar:
!!!NIFC-rismid: 1001064635
!!!URL-scan: http://repozytorium.nifc.pl/skany/pl-sa-nut--l1643
!!!ONB-nifc: UWAGA: 8 ksiąg. Primi chori: 1mus Cantus (x), C 2dus (111-112), C 3tius (x), Bassus (x); Secondi chori: Primus Cantus (x), C 2dus (106-107), Altus (x), Bassus (105). UWAGA: Nie dodawać pustych linii, chyba że w rękopisie pojawiają się dodatkowe oznaczenia dotyczące pełnej obsady (a 4, a 8 itp.)
**kern	**text	**kern	**text	**kern	**text
*part3	*part3	*part2	*part2	*part1	*part1
*staff3	*staff3	*staff2	*staff2	*staff1	*staff1
*I"Secondi chori: Bassus	*	*I"Secondi chori: C 2dus	*	*I"Primi chori: C 2dus	*
*I'Coro 2 B	*	*I'Coro 2 C 2	*	*I'Coro 1 C 2	*
*clefC3	*	*clefC1	*	*clefC1	*
*k[b-]	*	*k[b-]	*	*k[b-]	*
*M2/2	*	*M2/2	*	*M2/2	*
*met(C|)	*	*met(C|)	*	*met(C|)	*
=1	=1	=1	=1	=1	=1
0r	.	0r	.	1a	O
=2-	=2-	=2-	=2-	=2-	=2-
.	.	.	.	2.b-\	ui-
.	.	.	.	4cc\	.
=3-	=3-	=3-	=3-	=3-	=3-
1r	.	1r	.	1dd	-ri
=4-	=4-	=4-	=4-	=4-	=4-
1g	O	1b-	O	2.dd\	ga-
.	.	.	.	4cc\	-li-
=5-	=5-	=5-	=5-	=5-	=5-
2g\	vi-	2b-\	Vi-	2b-\	-le-
2d\	-ri	2dd\	-ri	2a\	-i
=6-	=6-	=6-	=6-	=6-	=6-
2.G/	Ga-	2.dd\	Ga-	2.b-\	ga-
4d\	-li-	4a\	-li-	4a\	-li-
=7-	=7-	=7-	=7-	=7-	=7-
1g	-le-	1b-	-le-	1g	-le-
=8-	=8-	=8-	=8-	=8-	=8-
1d	-i	1a	-i	1a	-i
=9-	=9-	=9-	=9-	=9-	=9-
0r	.	0r	.	1.b-	o
=10-	=10-	=10-	=10-	=10-	=10-
.	.	.	.	.	.
.	.	.	.	2a\	a-
=11-	=11-	=11-	=11-	=11-	=11-
1r	.	1r	.	1g	-mi-
=12-	=12-	=12-	=12-	=12-	=12-
2r	.	2r	.	2a\	-ci,
1B-/	O	1b-\	o	2r	.
=13-	=13-	=13-	=13-	=13-	=13-
.	.	.	.	0r	.
2F/	a-	2a\	a-	.	.
=14-	=14-	=14-	=14-	=14-	=14-
4G/	-mi-	1g	-mi-	.	.
4A/	.	.	.	.	.
4B-/	.	.	.	.	.
4c/	.	.	.	.	.
=15-	=15-	=15-	=15-	=15-	=15-
2d\	-ci	2a\	-ci	2r	.
2r	.	2r	.	1cc\	o
=16-	=16-	=16-	=16-	=16-	=16-
0r	.	0r	.	.	.
.	.	.	.	2cc\	a-
=17-	=17-	=17-	=17-	=17-	=17-
.	.	.	.	2a\	-mi-
.	.	.	.	2b-\	-ci
=18-	=18-	=18-	=18-	=18-	=18-
1r	.	1r	.	1a	de-
=19-	=19-	=19-	=19-	=19-	=19-
2r	.	2r	.	2a\	-i,
2B-/	quid	2b-\	quid	2r	.
=20-	=20-	=20-	=20-	=20-	=20-
1e-X	sta-	2.g/	sta-	1r	.
.	.	4a\	.	.	.
=21-	=21-	=21-	=21-	=21-	=21-
!	!	!	!	!LO:SIC:v:t=custos dd	!
2B-/	-tis	2b-\	-tis	2r	.
!	!	!	!	!LO:LB:g=original	!
2r	.	2r	.	2dd\	quid
=22-	=22-	=22-	=22-	=22-	=22-
1r	.	1r	.	2.dd\	ſta-
.	.	.	.	4cc\	.
=23-	=23-	=23-	=23-	=23-	=23-
2r	.	2r	.	2a\	-tis
2g\	a-	2b-\	as-	2b-\	a-
=24-	=24-	=24-	=24-	=24-	=24-
2g\	-spi-	2b-\	-pi-	2b-\	-ſpi
2g\	-ci-	2b-\	-ci-	2b-\	ci-
=25-	=25-	=25-	=25-	=25-	=25-
4c/	-en-	2.g/	-en-	1cc	-en-
!LO:SIC:v:t=custos e	!	!	!	!	!
4d\	.	.	.	.	.
!LO:LB:g=original	!	!	!	!	!
4eny\	.	.	.	.	.
4f\	.	4a\	.	.	.
=26-	=26-	=26-	=26-	=26-	=26-
2g\	-tes	2b-\	-tes	2b-\	-tes
2r	.	2r	.	2dd\	in
=27-	=27-	=27-	=27-	=27-	=27-
1r	.	1r	.	2.b-\	ce-
.	.	.	.	4cc\	.
=28-	=28-	=28-	=28-	=28-	=28-
!	!	!LO:SIC:v:t=custos dd	!	!	!
2r	.	2r	.	1dd	-lum,
!	!	!LO:PB:g=original	!	!	!
2G/	in	2dd\	in	.	.
=29-	=29-	=29-	=29-	=29-	=29-
1c	cae-	1cc	ce-	1r	.
=30-	=30-	=30-	=30-	=30-	=30-
2G/	-lum	2dd\	-lum	2r	.
2r	.	2r	.	1b-\	ad-
=31-	=31-	=31-	=31-	=31-	=31-
0r	.	0r	.	.	.
.	.	.	.	2a\	-mi-
=32-	=32-	=32-	=32-	=32-	=32-
.	.	.	.	1g	-ran-
=33-	=33-	=33-	=33-	=33-	=33-
2r	.	2r	.	2a\	-tes,
1B-/	ad-	1b-\	ad-	2r	.
=34-	=34-	=34-	=34-	=34-	=34-
.	.	.	.	0r	.
2f\	-mi-	2a\	-mi-	.	.
=35-	=35-	=35-	=35-	=35-	=35-
1g	-ra-	1g	-ran-	.	.
=36-	=36-	=36-	=36-	=36-	=36-
2d\	-mur	2a\	-tes	2r	.
2r	.	2r	.	1cc\	ad-
=37-	=37-	=37-	=37-	=37-	=37-
0r	.	0r	.	.	.
.	.	.	.	2cc\	-mi-
=38-	=38-	=38-	=38-	=38-	=38-
.	.	.	.	1a	-ran-
=39-	=39-	=39-	=39-	=39-	=39-
2r	.	2r	.	2a\	-teſ
2f\	aſ-	2a\	aſ-	2r	.
=40-	=40-	=40-	=40-	=40-	=40-
2e-X\	-cen-	2g/	-cen-	1r	.
2c/	-den-	2a\	-den-	.	.
=41-	=41-	=41-	=41-	=41-	=41-
2B-/	-tem	2b-\	-tem	2r	.
2r	.	2r	.	2a\	a-
=42-	=42-	=42-	=42-	=42-	=42-
00r	.	00r	.	2a\	-ſcen-
!	!	!	!	!LO:SIC:v:t=custos a	!
.	.	.	.	2cc\	-den-
=43-	=43-	=43-	=43-	=43-	=43-
!	!	!	!	!LO:LB:g=original	!
.	.	.	.	2a\	-tem
.	.	.	.	2dd\	in
=44-	=44-	=44-	=44-	=44-	=44-
.	.	.	.	2.b-\	ce-
.	.	.	.	4cc\	.
=45-	=45-	=45-	=45-	=45-	=45-
.	.	.	.	1dd	-lum
=46-	=46-	=46-	=46-	=46-	=46-
0c	Je-	0g	Je-	2.ee-X\	Je-
.	.	.	.	4dd\	.
=47-	=47-	=47-	=47-	=47-	=47-
.	.	.	.	1cc	.
=48-	=48-	=48-	=48-	=48-	=48-
2g\	-sum	2b-\	-sum	2dd\	-ſum,
2B-/	in	2.b-\	in	2r	.
=49-	=49-	=49-	=49-	=49-	=49-
1F	cae-	.	.	1r	.
.	.	8a\L	.	.	.
.	.	8g\J	.	.	.
.	.	2a\	ce-	.	.
=50-	=50-	=50-	=50-	=50-	=50-
2B-/	-lum	2b-\	-lum	2r	.
2r	.	2r	.	2b-\	hic
=51-	=51-	=51-	=51-	=51-	=51-
1r	.	1r	.	2.g/	ie-
.	.	.	.	4a\	.
=52-	=52-	=52-	=52-	=52-	=52-
!LO:SIC:v:t=custos B-	!	!	!	!	!
2r	.	2r	.	2b-\	-ſus,
!LO:LB:g=original	!	!	!	!	!
2B-/	qui	2b-\	qui	2r	.
=53-	=53-	=53-	=53-	=53-	=53-
2e-X\	aſ-	2g/	aſ-	00r	.
2c/	-sum-	2a\	-ſum-	.	.
=54-	=54-	=54-	=54-	=54-	=54-
1B-	-ptus	1b-	-ptus	.	.
=55-	=55-	=55-	=55-	=55-	=55-
2B-/	eſt	2b-\	est	.	.
!	!	!LO:SIC:v:t=custos g	!	!	!
2B-/	a	2b-\	a	.	.
=56-	=56-	=56-	=56-	=56-	=56-
!	!	!LO:LB:g=original	!	!	!
1c	vo-	2.g/	Vo-	.	.
.	.	4a\	.	.	.
=57-	=57-	=57-	=57-	=57-	=57-
2G/	-bis	2b-\	-bis	2r	.
2r	.	2r	.	2dd\	qui
=58-	=58-	=58-	=58-	=58-	=58-
00r	.	00r	.	2dd\	aſ-
.	.	.	.	2cc\	-ſum-
=59-	=59-	=59-	=59-	=59-	=59-
.	.	.	.	1a	-ptuſ
=60-	=60-	=60-	=60-	=60-	=60-
.	.	.	.	2b-\	est
.	.	.	.	2dd\	a
=61-	=61-	=61-	=61-	=61-	=61-
.	.	.	.	1cc	uo-
=62-	=62-	=62-	=62-	=62-	=62-
0r	.	0r	.	2b-\	-bis
.	.	.	.	2dd\	in
=63-	=63-	=63-	=63-	=63-	=63-
.	.	.	.	2.b-\	ce-
.	.	.	.	4cc\	.
=64-	=64-	=64-	=64-	=64-	=64-
!	!	!	!	!LO:SIC:v:t=custos b-	!
2r	.	2r	.	2dd\	-lum
!	!	!LO:TX:t=P:problem:# below	!	!	!
!	!	!LO:N:acc=#	!	!LO:LB:g=original	!
2G/	in	2bn\	in	2r	.
=65-	=65-	=65-	=65-	=65-	=65-
1c	cae-	1cc	ce-	1r	.
=66-	=66-	=66-	=66-	=66-	=66-
!	!	!LO:TX:t=P:problem:# below	!	!	!
!	!	!LO:N:acc=#	!	!	!
2G/	-lum	2bn\	-lum	2r	.
2r	.	2r	.	2b-\	sic
=67-	=67-	=67-	=67-	=67-	=67-
1r	.	1r	.	2a\	ue-
.	.	.	.	2g/	-ni-
=68-	=68-	=68-	=68-	=68-	=68-
2r	.	2r	.	2a\	-et,
2B-/	sic	2b-y\	sic	2r	.
=69-	=69-	=69-	=69-	=69-	=69-
2f\	Ve-	2a\	Ve-	1r	.
2g\	-ni-	2g/	-ni-	.	.
=70-	=70-	=70-	=70-	=70-	=70-
2d\	-et	2a\	-et	2r	.
2r	.	2r	.	2cc\	sic
=71-	=71-	=71-	=71-	=71-	=71-
1r	.	1r	.	2cc\	ue-
.	.	.	.	2a\	-ni-
=72-	=72-	=72-	=72-	=72-	=72-
2r	.	2r	.	2a\	-et,
2B-/	O	2b-\	O	2r	.
=73-	=73-	=73-	=73-	=73-	=73-
1F	Je-	1a	Je-	1r	.
=74-	=74-	=74-	=74-	=74-	=74-
2B-/	-su	2b-\	-su	2r	.
2r	.	2r	.	2b-\	noſ
=75-	=75-	=75-	=75-	=75-	=75-
1r	.	0r	.	2b-\	in
.	.	.	.	2a\	tu-
=76-	=76-	=76-	=76-	=76-	=76-
1ryy	.	.	.	1g	-e-
=77-	=77-	=77-	=77-	=77-	=77-
2r	.	2r	.	2a\	-re
!	!	!LO:TX:t=P:problem:# below	!	!	!
!	!	!LO:N:acc=#	!	!	!
2G/	O	2bn\	O	2r	.
=78-	=78-	=78-	=78-	=78-	=78-
!LO:SIC:v:t=custos g	!	!	!	!	!
1c	Je-	1cc	Je-	1r	.
=79-	=79-	=79-	=79-	=79-	=79-
!	!	!LO:TX:t=P:problem:# below	!	!	!
!LO:LB:g=original	!	!LO:N:acc=#	!	!	!
2G/	-su	2bn\	-su	2r	.
2r	.	2r	.	2dd\	nos
=80-	=80-	=80-	=80-	=80-	=80-
0r	.	0r	.	2dd\	in
.	.	.	.	2cc\	tu-
=81-	=81-	=81-	=81-	=81-	=81-
.	.	.	.	1a	-e-
=82-	=82-	=82-	=82-	=82-	=82-
2r	.	2r	.	2b-\	-re
2B-/	cul-	2b-y\	cul-	2b-\	cul
=83-	=83-	=83-	=83-	=83-	=83-
1B-	-pa-	1b-	-pa-	1b-	pa-
=84-	=84-	=84-	=84-	=84-	=84-
1B-	-rum	1b-	-rum	1b-	-rum
=85-	=85-	=85-	=85-	=85-	=85-
2f\	miſ-	2a\	miſ-	2cc\	miſ-
!	!	!LO:SIC:v:t=custos cc	!	!LO:SIC:v:t=custos a	!
!	!	!	!	!LO:SIC:v:l:t=custos "pon"	!
2B-/	-so	2b-\	-ſo	2b-\	-so
=86-	=86-	=86-	=86-	=86-	=86-
!	!	!LO:LB:g=original	!	!LO:PB:g=original	!
2.f\	pon-	2.cc\	pon-	2.a\	pon-
4f\	-de-	4cc\	-de-	4a\	-de-
=87-	=87-	=87-	=87-	=87-	=87-
1B-	-re	1b-	-re	1b-,	-re,
=88-	=88-	=88-	=88-	=88-	=88-
1r	.	1r	.	4b-\	ut
.	.	.	.	4b-\	can-
.	.	.	.	4b-\	-te-
.	.	.	.	4b-\	-muſ,
=89-	=89-	=89-	=89-	=89-	=89-
4B-/	Vt	4b-\	Vt	4.dd\	Al-
4B-/	can-	4b-\	can-	.	.
!	!	!	!	!LO:N:vis=4	!
.	.	.	.	8cc\	-le-
4B-/	-te-	4b-\	-te-	4a\	-lu-
4B-/	-mus	4b-\	-mus	4a\	-ia,
=90-	=90-	=90-	=90-	=90-	=90-
4.B-/	Al-	4.dd\	Al-	1r	.
8c/	-le-	8cc\	-l(e-	.	.
4d\	-lu-	4a\	-lu-	.	.
4d\	-ia	4a\	-i)a	.	.
=91-	=91-	=91-	=91-	=91-	=91-
*M3/2	*	*M3/2	*	*M3/2	*
0.r	.	0.r	.	1cc	Al-
.	.	.	.	2cc\	-le-
=92-	=92-	=92-	=92-	=92-	=92-
.	.	.	.	1a	-lu-
.	.	.	.	2a\	-ia,
=93-	=93-	=93-	=93-	=93-	=93-
1d	Al-	1a	Al-	0.r	.
2A/	-le-	2a\	-l(e-	.	.
=94-	=94-	=94-	=94-	=94-	=94-
1B-	-lu-	2.f/	-lu-	.	.
.	.	4g/	.	.	.
2F/	-ia	2a\	-i)a	.	.
=95-	=95-	=95-	=95-	=95-	=95-
1.r	.	1.r	.	2cc\	Al-
.	.	.	.	2b-\	-le-
.	.	.	.	2cc\	-lu-
=96-	=96-	=96-	=96-	=96-	=96-
2B-/	Al-	2b-\	Al-	2cc\	-ia,
!LO:LB:g=original	!	!	!	!	!
2eny\	-le-	2g/	-l(e-	2r	.
2c/	-lu-	2a\	-lu-	2r	.
=97-	=97-	=97-	=97-	=97-	=97-
*M2/2	*	*M2/2	*	*M2/2	*
*met(C|)	*	*met(C|)	*	*met(C|)	*
2B-/	-ia	2b-\	-i)a	2r	.
!	!	!	!	!LO:SIC:v:t=custos b-	!
1g\	Al-	1b-\	Al-	1dd\	Al-
=98-	=98-	=98-	=98-	=98-	=98-
!	!	!	!	!	!
.	.	.	.	.	.
!	!	!	!	!LO:DY:rj	!
2g\	-le-	2b-\	-l(e-	2b-\	-le-
=99-	=99-	=99-	=99-	=99-	=99-
2c/	-lu-	2g/	-lu-	2cc\	-lu-
!	!	!LO:SIC:v:t=custos dd	!	!	!
2g\	-ia	2b-\	-i)a	2dd\,<	-ia,
=100-	=100-	=100-	=100-	=100-	=100-
!	!	!LO:LB:g=original	!	!	!
1d	Al-	1dd	Al-	1dd	al-
=101-	=101-	=101-	=101-	=101-	=101-
2d\	-le-	2a\	-l(e-	2dd\	-le-
2d\	-lu-	2dd\	-lu-	2a\	-lu-
=102-	=102-	=102-	=102-	=102-	=102-
!	!	!	!	!LO:N:acc=#	!
1gl	-ia	1ddl	-i)a	1bnl	-ia-
==	==	==	==	==	==
*-	*-	*-	*-	*-	*-
!!!system-decoration: [(s1)][(s2,s3)]
!!!ENC:Anastazja Marusiak
!!!END:2021-10-13
!!!RDF**kern: l = terminal long
!!!RDF**kern: < = below
!!!EED: Andrzej Borzym
!!!EST: 2021-10-20
